img/motivation-icon.svg

<svg xmlns="http://www.w3.org/2000/svg" width="60.347" height="60" viewBox="0 0 60.347 60">
  <path id="Path_8" data-name="Path 8" d="M55.318,5V55H5.029V5Zm5.029-5H0V60H60.347ZM50.289,17.5H30.174V20H50.289Zm0,12.5H30.174v2.5H50.289Zm0,12.5H30.174V45H50.289ZM23.847,14.24,22.062,12.5l-6.419,6.517-3.87-3.63-1.755,1.775L15.675,22.5Zm0,12.5L22.062,25l-6.417,6.518-3.87-3.63L10.02,29.66,15.675,35Zm0,12.5L22.062,37.5l-6.417,6.518-3.87-3.63L10.02,42.16l5.655,5.34Z" fill="#707070"/>
</svg>

<?xml version="1.0" encoding="utf-8"?>
<!-- Generator: Adobe Illustrator 25.2.1, SVG Export Plug-In . SVG Version: 6.00 Build 0)  -->
<svg version="1.1" id="Layer_1" xmlns="http://www.w3.org/2000/svg" xmlns:xlink="http://www.w3.org/1999/xlink" x="0px" y="0px"
	 viewBox="0 0 60.3 60" style="enable-background:new 0 0 60.3 60;" xml:space="preserve">
<style type="text/css">
	.st0{fill:#707070;}
</style>
<path id="Path_8" class="st0" d="M50.3,17.5H30.2V20h20.1V17.5z M50.3,30H30.2v2.5h20.1V30z M50.3,42.5H30.2V45h20.1V42.5z
	 M23.9,14.2l-1.8-1.7L15.7,19l-3.9-3.6L10,17.2l5.7,5.3L23.9,14.2z M23.9,26.7L22.1,25l-6.4,6.5l-3.9-3.6L10,29.7l5.7,5.3L23.9,26.7
	z M23.9,39.2l-1.8-1.7L15.7,44l-3.9-3.6L10,42.2l5.7,5.3L23.9,39.2z"/>
</svg>
